Newaita/actions/22/insert-object.svg

<svg height="22" viewBox="0 0 22 22" width="22" xmlns="http://www.w3.org/2000/svg"><g fill="#424242"><path d="m11.824219 16.089844h-1.820313v-4.535156c0-.253907.203125-.457032.457032-.457032h.910156c.25 0 .453125.203125.453125.457032zm0 0"/><path d="m7.730469 15.636719h6.367187l-3.183594 4.546875zm0 0"/><path d="m10.914062 1.992188c-3.023437 0-5.457031 2.433593-5.457031 5.457031 0 2.027343 1.09375 3.789062 2.730469 4.730469v-2.320313c-.566406-.640625-.910156-1.484375-.910156-2.410156 0-2.015625 1.621094-3.640625 3.636718-3.640625 2.015626 0 3.640626 1.625 3.640626 3.640625 0 .925781-.34375 1.769531-.910157 2.410156v2.320313c1.632813-.941407 2.726563-2.703126 2.726563-4.730469 0-3.023438-2.433594-5.457031-5.457032-5.457031zm0 0"/></g></svg>

<svg xmlns="http://www.w3.org/2000/svg" xmlns:xlink="http://www.w3.org/1999/xlink" width="22px" height="22px" viewBox="0 0 22 22" version="1.1">
<g id="surface1">
     <defs>
  <style id="current-color-scheme" type="text/css">
   .ColorScheme-Text { color:#424242; } .ColorScheme-Highlight { color:#eeeeee; }
  </style>
 </defs>
<path style="fill:currentColor" class="ColorScheme-Text" d="M 11.824219 16.089844 L 10.003906 16.089844 L 10.003906 11.554688 C 10.003906 11.300781 10.207031 11.097656 10.460938 11.097656 L 11.371094 11.097656 C 11.621094 11.097656 11.824219 11.300781 11.824219 11.554688 Z M 11.824219 16.089844 "/>
     <defs>
  <style id="current-color-scheme" type="text/css">
   .ColorScheme-Text { color:#424242; } .ColorScheme-Highlight { color:#eeeeee; }
  </style>
 </defs>
<path style="fill:currentColor" class="ColorScheme-Text" d="M 7.730469 15.636719 L 14.097656 15.636719 L 10.914062 20.183594 Z M 7.730469 15.636719 "/>
     <defs>
  <style id="current-color-scheme" type="text/css">
   .ColorScheme-Text { color:#424242; } .ColorScheme-Highlight { color:#eeeeee; }
  </style>
 </defs>
<path style="fill:currentColor" class="ColorScheme-Text" d="M 10.914062 1.992188 C 7.890625 1.992188 5.457031 4.425781 5.457031 7.449219 C 5.457031 9.476562 6.550781 11.238281 8.1875 12.179688 L 8.1875 9.859375 C 7.621094 9.21875 7.277344 8.375 7.277344 7.449219 C 7.277344 5.433594 8.898438 3.808594 10.914062 3.808594 C 12.929688 3.808594 14.554688 5.433594 14.554688 7.449219 C 14.554688 8.375 14.210938 9.21875 13.644531 9.859375 L 13.644531 12.179688 C 15.277344 11.238281 16.371094 9.476562 16.371094 7.449219 C 16.371094 4.425781 13.9375 1.992188 10.914062 1.992188 Z M 10.914062 1.992188 "/>
</g>
</svg>
